assets/devzone.svg

<?xml version="1.0" encoding="UTF-8" standalone="no"?>
<svg
   viewBox="0 0 309.79999 126.4"
   id="Layer_1"
   overflow="hidden"
   version="1.1"
   sodipodi:docname="devzone.svg"
   width="309.79999"
   height="126.4"
   inkscape:version="1.1.1 (3bf5ae0d25, 2021-09-20)"
   xmlns:inkscape="http://www.inkscape.org/namespaces/inkscape"
   xmlns:sodipodi="http://sodipodi.sourceforge.net/DTD/sodipodi-0.dtd"
   xmlns="http://www.w3.org/2000/svg"
   xmlns:svg="http://www.w3.org/2000/svg">
  <defs
     id="defs27" />
  <sodipodi:namedview
     id="namedview25"
     pagecolor="#ffffff"
     bordercolor="#666666"
     borderopacity="1.0"
     inkscape:pageshadow="2"
     inkscape:pageopacity="0.0"
     inkscape:pagecheckerboard="0"
     showgrid="false"
     fit-margin-top="0"
     fit-margin-left="0"
     fit-margin-right="0"
     fit-margin-bottom="0"
     inkscape:zoom="2.5052265"
     inkscape:cx="18.162031"
     inkscape:cy="63.866481"
     inkscape:window-width="1920"
     inkscape:window-height="1171"
     inkscape:window-x="0"
     inkscape:window-y="0"
     inkscape:window-maximized="1"
     inkscape:current-layer="Layer_1" />
  <g
     id="g22"
     transform="translate(-82,-79.4)">
    <path
       d="m 125.4,205.8 h -9.6 c -5.5,0 -10.2,-2 -14.1,-5.9 -3.9,-3.9 -5.9,-8.6 -5.9,-14.1 v -26 c 0,-3.3 -1.2,-6.2 -3.6,-8.7 -2.3,-2.4 -5.2,-3.6 -8.5,-3.6 H 82 v -10.4 h 1.6 c 3.3,0 6.2,-1.2 8.6,-3.6 2.4,-2.5 3.6,-5.4 3.6,-8.7 V 99.4 c 0,-5.5 2,-10.2 5.9,-14.1 3.9,-3.9 8.6,-5.9 14.1,-5.9 h 9.6 v 9 h -9.6 c -2.7,0 -5,1 -6.9,2.9 -1.9,1.9 -2.8,4.2 -2.8,6.9 v 26.4 c 0,4 -1.1,7.7 -3.3,11 -2.3,3.6 -5.4,5.8 -9.1,6.7 4,1.4 7.2,3.7 9.4,7 2,3.2 3,6.7 3,10.6 V 187 c 0,2.7 0.9,5 2.8,6.9 2,1.9 4.3,2.8 6.9,2.8 h 9.6 z"
       fill="#d0df00"
       id="path2" />
    <g
       id="g20">
      <g
         id="g18">
        <path
           d="m 161.2,156.3 c 0,3.7 -1.3,6.8 -3.9,9.4 -2.6,2.6 -5.7,3.9 -9.3,3.9 H 134.8 V 115.4 H 148 c 3.6,0 6.7,1.3 9.3,3.9 2.6,2.6 3.9,5.8 3.9,9.4 z m -8.2,5.9 c 1.4,-1.5 2.1,-3.2 2.1,-5.1 v -29 c 0,-1.9 -0.7,-3.6 -2.1,-5.1 -1.4,-1.4 -3.1,-2.1 -5.1,-2.1 h -7.1 v 43.4 h 7.1 c 2.1,0 3.7,-0.7 5.1,-2.1 z"
           fill="#333d48"
           id="path4" />
        <path
           d="M 199.3,150 H 179 v 7.7 c 0,2 0.7,3.7 2.1,5.1 1.4,1.4 3.1,2.1 5.1,2.1 3.8,0 6.6,-1.7 8.3,-5.2 l 4.6,3.2 c -3.1,4.9 -7.4,7.4 -12.9,7.4 -3.7,0 -6.8,-1.3 -9.3,-3.9 -2.6,-2.6 -3.9,-5.8 -3.9,-9.5 v -16.3 c 0,-3.7 1.3,-6.9 3.9,-9.4 2.6,-2.6 5.7,-3.9 9.3,-3.9 3.6,0 6.7,1.3 9.3,3.9 2.6,2.6 3.9,5.8 3.9,9.4 v 9.4 z m -6.1,-5.4 v -4.7 c 0,-1.9 -0.7,-3.6 -2.1,-5.1 -1.4,-1.4 -3.1,-2.1 -5,-2.1 -2,0 -3.7,0.7 -5.1,2.1 -1.4,1.4 -2.1,3.1 -2.1,5.1 v 4.7 z"
           fill="#333d48"
           id="path6" />
        <path
           d="m 240.6,128 -12.8,41.6 h -6.2 L 208.9,128 h 6.3 l 9.6,33.4 9.6,-33.4 z"
           fill="#333d48"
           id="path8" />
        <path
           d="m 276.6,169.6 h -26.3 v -7.9 L 270,120.8 h -19.7 v -5.4 h 26.3 v 5.7 l -20.7,43.1 h 20.7 z"
           fill="#333d48"
           id="path10" />
        <path
           d="m 314.3,157 c 0,3.7 -1.3,6.8 -3.9,9.4 -2.6,2.6 -5.7,3.9 -9.3,3.9 -3.7,0 -6.8,-1.3 -9.3,-3.9 -2.6,-2.6 -3.9,-5.7 -3.9,-9.4 v -16.3 c 0,-3.7 1.3,-6.9 3.9,-9.4 2.6,-2.6 5.7,-3.9 9.3,-3.9 3.6,0 6.7,1.3 9.3,3.9 2.6,2.6 3.9,5.8 3.9,9.4 z m -8.1,5.9 c 1.4,-1.4 2.1,-3.1 2.1,-5.1 V 140 c 0,-2 -0.7,-3.7 -2.1,-5.1 -1.4,-1.4 -3.1,-2.1 -5,-2.1 -2,0 -3.6,0.7 -5.1,2.1 -1.5,1.4 -2.1,3.1 -2.1,5.1 v 17.8 c 0,2 0.7,3.7 2.1,5.1 1.4,1.4 3.1,2.1 5.1,2.1 2,0 3.6,-0.7 5,-2.1 z"
           fill="#333d48"
           id="path12" />
        <path
           d="m 353,169.6 h -6 V 140 c 0,-2 -0.5,-3.7 -1.6,-5.1 -1.1,-1.4 -2.7,-2.1 -4.5,-2.1 -3.3,0 -6.1,1.5 -8.2,4.5 v 32.3 h -6 V 128 h 6 v 4.7 c 2.5,-3.5 5.8,-5.2 9.7,-5.2 3,0 5.5,1.1 7.6,3.3 2.1,2.3 3.1,5.2 3.1,8.9 v 29.9 z"
           fill="#333d48"
           id="path14" />
        <path
           d="m 391.7,150 h -20.3 v 7.7 c 0,2 0.7,3.7 2.1,5.1 1.4,1.4 3.1,2.1 5.1,2.1 3.8,0 6.6,-1.7 8.3,-5.2 l 4.6,3.2 c -3.1,4.9 -7.4,7.4 -12.9,7.4 -3.7,0 -6.8,-1.3 -9.3,-3.9 -2.6,-2.6 -3.9,-5.8 -3.9,-9.5 v -16.3 c 0,-3.7 1.3,-6.9 3.9,-9.4 2.6,-2.6 5.7,-3.9 9.3,-3.9 3.6,0 6.7,1.3 9.3,3.9 2.6,2.6 3.9,5.8 3.9,9.4 v 9.4 z m -6.1,-5.4 v -4.7 c 0,-1.9 -0.7,-3.6 -2.1,-5.1 -1.4,-1.4 -3.1,-2.1 -5,-2.1 -2,0 -3.7,0.7 -5.1,2.1 -1.4,1.4 -2.1,3.1 -2.1,5.1 v 4.7 z"
           fill="#333d48"
           id="path16" />
      </g>
    </g>
  </g>
</svg>

<svg viewBox="0 0 470 287" xmlns="http://www.w3.org/2000/svg" xmlns:xlink="http://www.w3.org/1999/xlink" id="Layer_1" overflow="hidden"><g><path d="M125.4 205.8 115.8 205.8C110.3 205.8 105.6 203.8 101.7 199.9 97.8 196 95.8 191.3 95.8 185.8L95.8 159.8C95.8 156.5 94.6 153.6 92.2 151.1 89.9 148.7 87 147.5 83.7 147.5L82 147.5 82 137.1 83.6 137.1C86.9 137.1 89.8 135.9 92.2 133.5 94.6 131 95.8 128.1 95.8 124.8L95.8 99.4C95.8 93.9 97.8 89.2 101.7 85.3 105.6 81.4 110.3 79.4 115.8 79.4L125.4 79.4 125.4 88.4 115.8 88.4C113.1 88.4 110.8 89.4 108.9 91.3 107 93.2 106.1 95.5 106.1 98.2L106.1 124.6C106.1 128.6 105 132.3 102.8 135.6 100.5 139.2 97.4 141.4 93.7 142.3 97.7 143.7 100.9 146 103.1 149.3 105.1 152.5 106.1 156 106.1 159.9L106.1 187C106.1 189.7 107 192 108.9 193.9 110.9 195.8 113.2 196.7 115.8 196.7L125.4 196.7 125.4 205.8Z" fill="#D0DF00"/><g><g><path d="M161.2 156.3C161.2 160 159.9 163.1 157.3 165.7 154.7 168.3 151.6 169.6 148 169.6L134.8 169.6 134.8 115.4 148 115.4C151.6 115.4 154.7 116.7 157.3 119.3 159.9 121.9 161.2 125.1 161.2 128.7L161.2 156.3ZM153 162.2C154.4 160.7 155.1 159 155.1 157.1L155.1 128.1C155.1 126.2 154.4 124.5 153 123 151.6 121.6 149.9 120.9 147.9 120.9L140.8 120.9 140.8 164.3 147.9 164.3C150 164.3 151.6 163.6 153 162.2Z" fill="#333D48"/><path d="M199.3 150 179 150 179 157.7C179 159.7 179.7 161.4 181.1 162.8 182.5 164.2 184.2 164.9 186.2 164.9 190 164.9 192.8 163.2 194.5 159.7L199.1 162.9C196 167.8 191.7 170.3 186.2 170.3 182.5 170.3 179.4 169 176.9 166.4 174.3 163.8 173 160.6 173 156.9L173 140.6C173 136.9 174.3 133.7 176.9 131.2 179.5 128.6 182.6 127.3 186.2 127.3 189.8 127.3 192.9 128.6 195.5 131.2 198.1 133.8 199.4 137 199.4 140.6L199.4 150ZM193.2 144.6 193.2 139.9C193.2 138 192.5 136.3 191.1 134.8 189.7 133.4 188 132.7 186.1 132.7 184.1 132.7 182.4 133.4 181 134.8 179.6 136.2 178.9 137.9 178.9 139.9L178.9 144.6 193.2 144.6Z" fill="#333D48"/><path d="M240.6 128 227.8 169.6 221.6 169.6 208.9 128 215.2 128 224.8 161.4 234.4 128 240.6 128Z" fill="#333D48"/><path d="M276.6 169.6 250.3 169.6 250.3 161.7 270 120.8 250.3 120.8 250.3 115.4 276.6 115.4 276.6 121.1 255.9 164.2 276.6 164.2 276.6 169.6Z" fill="#333D48"/><path d="M314.3 157C314.3 160.7 313 163.8 310.4 166.4 307.8 169 304.7 170.3 301.1 170.3 297.4 170.3 294.3 169 291.8 166.4 289.2 163.8 287.9 160.7 287.9 157L287.9 140.7C287.9 137 289.2 133.8 291.8 131.3 294.4 128.7 297.5 127.4 301.1 127.4 304.7 127.4 307.8 128.7 310.4 131.3 313 133.9 314.3 137.1 314.3 140.7L314.3 157ZM306.2 162.9C307.6 161.5 308.3 159.8 308.3 157.8L308.3 140C308.3 138 307.6 136.3 306.2 134.9 304.8 133.5 303.1 132.8 301.2 132.8 299.2 132.8 297.6 133.5 296.1 134.9 294.6 136.3 294 138 294 140L294 157.8C294 159.8 294.7 161.5 296.1 162.9 297.5 164.3 299.2 165 301.2 165 303.2 165 304.8 164.3 306.2 162.9Z" fill="#333D48"/><path d="M353 169.6 347 169.6 347 140C347 138 346.5 136.3 345.4 134.9 344.3 133.5 342.7 132.8 340.9 132.8 337.6 132.8 334.8 134.3 332.7 137.3L332.7 169.6 326.7 169.6 326.7 128 332.7 128 332.7 132.7C335.2 129.2 338.5 127.5 342.4 127.5 345.4 127.5 347.9 128.6 350 130.8 352.1 133.1 353.1 136 353.1 139.7L353.1 169.6Z" fill="#333D48"/><path d="M391.7 150 371.4 150 371.4 157.7C371.4 159.7 372.1 161.4 373.5 162.8 374.9 164.2 376.6 164.9 378.6 164.9 382.4 164.9 385.2 163.2 386.9 159.7L391.5 162.9C388.4 167.8 384.1 170.3 378.6 170.3 374.9 170.3 371.8 169 369.3 166.4 366.7 163.8 365.4 160.6 365.4 156.9L365.4 140.6C365.4 136.9 366.7 133.7 369.3 131.2 371.9 128.6 375 127.3 378.6 127.3 382.2 127.3 385.3 128.6 387.9 131.2 390.5 133.8 391.8 137 391.8 140.6L391.8 150ZM385.6 144.6 385.6 139.9C385.6 138 384.9 136.3 383.5 134.8 382.1 133.4 380.4 132.7 378.5 132.7 376.5 132.7 374.8 133.4 373.4 134.8 372 136.2 371.3 137.9 371.3 139.9L371.3 144.6 385.6 144.6Z" fill="#333D48"/></g></g></g></svg>
